X:1
T:Title
%%score { ( 1 4 ) | ( 2 3 ) }
L:1/8
M:4/4
K:F
V:1 treble nm="Grand Piano"
V:4 treble 
V:2 treble 
V:3 treble 
V:1
 z2[Q:1/4=100] [Ac]>B A2 A2 |[M:3/4] A4 [Ac]2 | [GB]>[FA] [EG]2 [EG]2 | [EG]4 [GB]2 | A2 F2 [Ac]d | %5
 [Ac]2 [Ac]2 [DGB]2 | [CFA]3 [CFA] [B,EG]2 | [A,F]6 | [Ac]>B A2 A2 | A4 [Ac]2 | %10
 [GB]>[FA] [EG]2 [EG]2 | [EG]4 [GB]2 | A2 F2 [Ac]d | [Ac]2 [Ac]2 [DGB]2 | [CFA]3 [CFA] [B,EG]2 | %15
 [A,F]6 | [CEG]3 [CGc] [F=B][Fd] | [Ec]2 [EG]4 | [Ge]3 [Gc] =B[Fd] | [Ec]2 [Ec]4 | %20
 [Gc]2 [Gc][Gc] [Gc][Gc] | [Ad][Ad] [Ad][Ad] [Ad][Ad] | e3 e d2 | [Cc]6 | [Ac]>B A2 A2 | A4 [Ac]2 | %26
 [GB]>[FA] [EG]2 [EG]2 | [EG]4 [GB]2 | A2 F2 [Ac]d | [Ac]2 [Ac]2 [DGB]2 | [CFA]3 [CFA] [B,EG]2 | %31
[M:7/4] [A,F]6 z2 z2 z4 |] %32
V:2
 z2 z z/ G/ [F,CF]2 [F,CF]2 |[M:3/4] [F,CF]4[K:bass] [F,C]2 | [C,C]2 [C,C]2 [C,C]2 | %3
 [C,C]4 [C,C]2 | [F,F]2 z[K:treble] A z B | F,2 F,2 B,,2 | C,3 C, C,2 | F,6 | %8
 z z/[K:treble] G/ [F,CF]2[K:bass] [F,CF]2 | [F,CF]4 [F,C]2 | [C,C]2 [C,C]2 [C,C]2 | %11
 [C,C]4 [C,C]2 | [F,F]2 z[K:treble] A z B | F,2 F,2 B,,2 | C,3 C, C,2 | F,6 | C,3 E, G,G, | %17
 [C,G,]2 [C,C]4 | [C,C]3 [E,C] [G,F][G,,G,] | [C,G,]2 [C,G,]4 | [E,C]2 [E,C][E,C] [E,C][E,C] | %21
 [F,C][F,C] [F,C][F,C] [F,C][F,C] | [G,CG]3 [G,CG][K:bass] [G,,=B,F]2 | z2 z2[K:treble] B2 | %24
 z z/ G/ [F,CF]2 [F,CF]2 | [F,CF]4 [F,C]2 | [C,C]2 [C,C]2 [C,C]2 | [C,C]4 [C,C]2 | %28
 [F,F]2 z[K:treble] A z B | F,2 F,2 B,,2 | C,3 C, C,2 |[M:7/4] F,6 z2 z2 z4 |] %32
V:3
 z2 [F,C]2 z4 |[M:3/4] x4[K:bass] x2 | x6 | x6 | z2 F,2[K:treble] F,2 | x6 | x6 | x6 | %8
 [F,C]2[K:treble] z2[K:bass] z2 | x6 | x6 | x6 | z2 F,2[K:treble] F,2 | x6 | x6 | x6 | x6 | x6 | %18
 x6 | x6 | x6 | x6 | x4[K:bass] x2 | C,6[K:treble] | [F,C]2 z2 z2 | x6 | x6 | x6 | %28
 z2 F,2[K:treble] F,2 | x6 | x6 |[M:7/4] x14 |] %32
V:4
 x8 |[M:3/4] x6 | x6 | x6 | x6 | x6 | x6 | x6 | x6 | x6 | x6 | x6 | x6 | x6 | x6 | x6 | x6 | x6 | %18
 x6 | x6 | x6 | x6 | x6 | E4 z2 | x6 | x6 | x6 | x6 | x6 | x6 | x6 |[M:7/4] x14 |] %32

